X:1
T:Title
%%score ( 1 2 ) { 3 | 4 }
L:1/8
Q:1/4=125
M:3/4
K:G
V:1 treble nm="Grand Piano, Unnamed-000"
V:2 treble 
V:3 treble nm="Choir Pad, Unnamed-001"
V:4 bass 
V:1
 [DB]2 [DA]2 [DG]2 | G2 F2 [DG]2 | [EA]2 E2 [DF]2 | [DG]6 | [EG]2 [DF]2 [CE]2 | [B,D]4 [DG]2 | %6
w: By~Henry~F.~Hemy,~1865 * *||||||
 G2 F2 [^CG]2 | [DA]6 | [DB]2 [DA]2 [DG]2 | [DG]2 [CF]2 [B,G]2 | [EA]2 E2 [CF]2 | [DG]6 | %12
w: ||||||
 [EG]2 [DF]2 [CE]2 | [B,D]4 [DB]2 | A2 B2 [=CA]2 | [B,G]6 | [Gc]2 [Gc]2 [Gc]2 | [GB]4 [GB]2 | %18
w: ||||||
 [FA]4 [FA]2 | [GB]6 | [B,B]2 [CA]2 [DG]2 | [CE]4 [B,G]2 | [DA]4 [CA]2 | [B,G]6- | [B,G]2 z2 z2 |] %25
w: |||||||
V:2
 x6 | D4 z2 | x6 | x6 | x6 | x6 | ^C4 z2 | x6 | x6 | x6 | x6 | x6 | x6 | x6 | ^C4 z2 | x6 | x6 | %17
 x6 | x6 | x6 | x6 | x6 | x6 | x6 | x6 |] %25
V:3
 D2 C2 B,2 | B,2 C2[K:bass] B,2 | A,4 C2 | B,6 | G,2 G,2 G,2 | G,4 B,2 | E,4 A,2 | F,6 | %8
 D2 C2 B,2 | B,2 A,2 G,2 | C4 A,2 | B,6 | G,2 G,2 G,2 | G,4 G,2 | G,4 F,2 | G,6 | E2 E2 E2 | %17
 D4 D2 | D4 D2 | D6 | G,2 F,2 G,2 | G,4 G,2 | G,4 F,2 | G,6- | G,2 z2 z2 |] %25
V:4
 G,2 G,2 G,2 | G,2 A,2 G,2 | C,4 D,2 | G,,6 | C,2 C,2 E,2 | z2 z2 G,,2 | A,,4 A,,2 | D,6 | %8
 G,2 G,2 G,2 | D,4 E,2 | C,4 D,2 | G,,6 | C,2 C,2 E,2 | z2 z2 G,,2 | A,,4 D,2 | z6 | C,2 C,2 C,2 | %17
 G,4 G,2 | D,4 D,2 | G,6 | G,,2 A,,2 B,,2 | C,4 E,2 | D,4 D,2 | G,,6- | G,,2 z2 z2 |] %25

